packages/blockchain-info-components/src/Images/img/recurring-buys-get-started.svg

<svg fill="none" height="130" viewBox="0 0 222 130" width="222" xmlns="http://www.w3.org/2000/svg"><path d="m28.1606 117.862h19.0124" stroke="#0c6cf2" stroke-linecap="round" stroke-linejoin="round" stroke-miterlimit="10" stroke-width="3"/><path d="m170.3 117.862h19.013" stroke="#0c6cf2" stroke-linecap="round" stroke-linejoin="round" stroke-miterlimit="10" stroke-width="3"/><path d="m46.2674 112.37h-26.2552c-4.7531 0-8.6008-3.734-8.6008-8.347 0-4.6133 3.8477-8.3476 8.6008-8.3476h6.7902c2.2543 0 4.074-1.7661 4.074-3.954 0-2.1878-1.8197-3.9539-4.074-3.9539h-16.2963c-2.99675 0-5.43214-2.3636-5.43214-5.272s2.43539-5.2719 5.43214-5.2719h20.823c2.9967 0 5.4321-2.3636 5.4321-5.272 0-2.9083-2.4354-5.2719-5.4321-5.2719h-17.6543c-6.24693 0-11.31689-4.9205-11.31689-10.9833 0-6.0627 5.06996-10.9832 11.31689-10.9832h13.1276c2.2543 0 4.074-1.7661 4.074-3.9539 0-2.1879-1.8197-3.954-4.074-3.954h-13.1276c-3.2502 0-5.88479-2.5569-5.88479-5.7113s2.63459-5.7113 5.88479-5.7113h28.0658c2.2543 0 4.0741-1.7661 4.0741-3.9539 0-2.1879-1.8198-3.954-4.0741-3.954h-19.0123c-2.2543 0-4.0741-1.7661-4.0741-3.9539 0-2.1879 1.8198-3.95401 4.0741-3.95401h168.8477c3.504 0 6.337 2.75021 6.337 6.15061s-2.833 6.1506-6.337 6.1506h-19.465c-1.747 0-3.169 1.3795-3.169 3.0753s1.422 3.0753 3.169 3.0753h37.119c1.748 0 3.169 1.3795 3.169 3.0753s-1.421 3.0753-3.169 3.0753h-15.843c-2.997 0-5.432 2.3636-5.432 5.272 0 2.9083 2.435 5.2719 5.432 5.2719h13.58c6.998 0 12.675 5.5092 12.675 12.3012s-5.677 12.3012-12.675 12.3012h-14.033c-2.499 0-4.527 1.9682-4.527 4.3933s2.028 4.3933 4.527 4.3933h12.675c5.749 0 10.411 4.5251 10.411 10.1046s-4.662 10.1045-10.411 10.1045h-18.107c-1.747 0-3.169 1.3795-3.169 3.0757 0 1.695 1.422 3.075 3.169 3.075h11.769c2.255 0 4.075 1.766 4.075 3.954s-1.82 3.954-4.075 3.954h-31.687" stroke="#dfe3eb" stroke-linecap="round" stroke-linejoin="round" stroke-miterlimit="10" stroke-width="3"/><path d="m55.0946 122.914h106.8314c5.504 0 9.959-4.323 9.959-9.665v-15.8162h-32.593c-2.236 0-4.318-.5887-6.12-1.608-11.326 7.3982-24.961 11.7122-39.6363 11.7122h-48.4v5.712c0 5.342 4.4544 9.665 9.9589 9.665z" fill="#bbdbfc"/><path d="m162.958 53.4471c-1.648 7.2489-4.463 14.0673-8.257 20.2619h17.184v-29.8744c0 4.9996-3.911 9.1117-8.927 9.6125z" fill="#bbdbfc"/><path d="m162.152 53.7195h-106.8308c-5.5046 0-9.9589-4.323-9.9589-9.6652 0-5.3423 4.4543-9.6653 9.9589-9.6653h106.8308c5.505 0 9.959 4.323 9.959 9.6653 0 5.3422-4.454 9.6652-9.959 9.6652z" style="fill:#fff;stroke:#0c6cf2;stroke-width:3;stroke-miterlimit:10;stroke-linecap:round;stroke-linejoin:round"/><path d="m139.745 90.8427c3 0 5.432-2.3603 5.432-5.2719s-2.432-5.272-5.432-5.272-5.432 2.3604-5.432 5.272 2.432 5.2719 5.432 5.2719z" style="fill:#bbdbfc;stroke:#bbdbfc;stroke-width:3;stroke-miterlimit:10;stroke-linecap:round;stroke-linejoin:round"/><path d="m160.74 39.2217h-104.2783c-2.2 0-4.2189 1.4058-4.6626 3.4707-.5975 2.8205 1.6478 5.3159 4.4815 5.3159h104.2784c2.2 0 4.219-1.4059 4.662-3.4707.607-2.8293-1.638-5.3159-4.481-5.3159z" fill="#bbdbfc"/><path d="m139.836 97.6523c-6.275 0-11.779-4.4636-12.467-10.5087-.806-7.1611 4.943-13.215 12.15-13.215h32.592v-29.8744c0 5.3422-4.454 9.6652-9.959 9.6652h-106.8308c-5.5046 0-9.9589-4.323-9.9589-9.6652v69.4138c0 5.342 4.4543 9.665 9.9589 9.665h106.8308c5.505 0 9.959-4.323 9.959-9.665v-15.8157z" stroke="#0c6cf2" stroke-linecap="round" stroke-linejoin="round" stroke-miterlimit="10" stroke-width="3"/><path d="m82.373 17.0443c4.19 0 7.5868-3.2966 7.5868-7.36315 0-4.06656-3.3968-7.36316-7.5868-7.36316-4.1901 0-7.5869 3.2966-7.5869 7.36316 0 4.06655 3.3968 7.36315 7.5869 7.36315z" style="fill:#0c6cf2;stroke:#bbdbfc;stroke-width:3;stroke-miterlimit:10;stroke-linecap:round;stroke-linejoin:round"/><path d="m82.373 11.4472c1.005 0 1.8197-.7907 1.8197-1.76606 0-.97539-.8147-1.7661-1.8197-1.7661-1.0051 0-1.8198.79071-1.8198 1.7661 0 .97536.8147 1.76606 1.8198 1.76606z" fill="#fff"/><path d="m82.373 8.34558c.7514 0 1.3671.59748 1.3671 1.32677 0 .72925-.6157 1.32675-1.3671 1.32675s-1.3671-.5975-1.3671-1.32675c0-.72929.6066-1.32677 1.3671-1.32677zm0-.87866c-1.2584 0-2.2724.9841-2.2724 2.20543 0 1.22135 1.014 2.20545 2.2724 2.20545s2.2724-.9841 2.2724-2.20545c0-1.22133-1.023-2.20543-2.2724-2.20543z" fill="#fff"/><g stroke-linecap="round" stroke-linejoin="round" stroke-miterlimit="10" stroke-width="3"><path d="m60.6442 24.9522c2.6901 0 4.8708-2.1165 4.8708-4.7272 0-2.6108-2.1807-4.7272-4.8708-4.7272-2.69 0-4.8708 2.1164-4.8708 4.7272 0 2.6107 2.1808 4.7272 4.8708 4.7272z" fill="#0c6cf2" stroke="#bbdbfc"/><path d="m156.612 24.9522c2.69 0 4.87-2.1165 4.87-4.7272 0-2.6108-2.18-4.7272-4.87-4.7272-2.691 0-4.871 2.1164-4.871 4.7272 0 2.6107 2.18 4.7272 4.871 4.7272z" fill="#0c6cf2" stroke="#bbdbfc"/><path d="m120.053 54.8178c14.001 0 25.35-11.0149 25.35-24.6025 0-13.5875-11.349-24.60238-25.35-24.60238-14 0-25.3494 11.01488-25.3494 24.60238 0 13.5876 11.3494 24.6025 25.3494 24.6025z" fill="#fff" stroke="#bbdbfc"/><path d="m120.053 49.6776c11.076 0 20.054-8.7136 20.054-19.4623s-8.978-19.4622-20.054-19.4622c-11.075 0-20.053 8.7135-20.053 19.4622s8.978 19.4623 20.053 19.4623z" fill="#0c6cf2" stroke="#bbdbfc"/><path d="m119.673 5.61292v5.14018" stroke="#bbdbfc"/><path d="m107.053 9.09241 2.643 4.45479" stroke="#bbdbfc"/><path d="m97.9087 18.2305 4.5903 2.5744" stroke="#bbdbfc"/><path d="m94.7036 30.5844h5.2963" stroke="#bbdbfc"/><path d="m98.2886 42.8329 4.5904-2.5657" stroke="#bbdbfc"/><path d="m107.705 51.7074 2.652-4.4548" stroke="#bbdbfc"/><path d="m120.434 54.8178v-5.1402" stroke="#bbdbfc"/><path d="m133.054 51.3383-2.643-4.4548" stroke="#bbdbfc"/><path d="m142.199 42.2002-4.591-2.5745" stroke="#bbdbfc"/><path d="m145.403 29.8463h-5.296" stroke="#bbdbfc"/><path d="m141.818 17.5978-4.59 2.5657" stroke="#bbdbfc"/><path d="m132.402 8.72339-2.652 4.45481" stroke="#bbdbfc"/></g><path d="m118.75 16.8949.905 9.8498 8.918 2.9698z" fill="#fff"/><path d="m118.75 16.8949-7.325 14.3133 8.23-4.4635z" fill="#fff"/><path d="m120.587 36.8405.616 6.6866 7.514-12.2661z" fill="#fff"/><path d="m121.203 43.5358-.616-6.6954-9.017-4.0858z" fill="#fff"/><path d="m120.442 35.294 8.13-5.5795-8.917-2.9699z" fill="#fff"/><path d="m111.425 31.2082 9.018 4.0858-.788-8.5494z" fill="#fff"/><path d="m86.5557 85.5708c16.5003 0 29.8763-12.9818 29.8763-28.9957s-13.376-28.9958-29.8763-28.9958-29.8765 12.9819-29.8765 28.9958 13.3762 28.9957 29.8765 28.9957z" style="fill:#fff;stroke:#bbdbfc;stroke-width:3;stroke-miterlimit:10;stroke-linecap:round;stroke-linejoin:round"/><path d="m86.5559 79.508c13.0503 0 23.6301-10.2674 23.6301-22.9329 0-12.6656-10.5798-22.933-23.6301-22.933s-23.6296 10.2674-23.6296 22.933c0 12.6655 10.5793 22.9329 23.6296 22.9329z" style="fill:#0c6cf2;stroke:#bbdbfc;stroke-width:3;stroke-miterlimit:10;stroke-linecap:round;stroke-linejoin:round"/><path d="m98.3887 54.5717c1.014-3.0928-1.195-5.184-4.409-6.8535l1.8107-4.1297-2.5893-1.072-1.7655 4.0155c-.679-.2812-1.3761-.5535-2.0823-.8259l1.7745-4.0419-2.5893-1.0719-1.8107 4.1209c-.5613-.2197-1.1226-.4393-1.6568-.659h.0091l-3.5671-1.4761-1.177 2.6799s1.9284.7556 1.8832.7732c1.0502.4305 1.1317 1.1686 1.0049 1.7134l-4.9613 11.2995c-.1901.2987-.6066.7293-1.3399.4306.0181.0439-1.8832-.7733-1.8832-.7733l-1.8288 2.7854 3.3679 1.3883c.6247.2636 1.2404.5271 1.8379.782l-1.8288 4.1736 2.5893 1.0719 1.8107-4.1296c.7062.3075 1.3852.5974 2.0551.8698l-1.8016 4.1121 2.5893 1.072 1.8288-4.1648c4.4543 1.5552 7.9671 1.7485 10.0856-2.0561 1.7111-3.0665.7877-5.1313-1.4304-6.7305 1.8288-.1142 3.3316-1.0368 4.074-3.3038zm-7.5415 7.4247c-1.3671 3.1192-6.7087.492-8.4651-.2372l2.4264-5.5268c1.7564.7293 7.4691 2.513 6.0387 5.764zm2.2181-8.2945c-1.2494 2.838-5.6856.6062-7.1432.0088l2.2-5.0084c1.4576.5887 6.2469 2.0385 4.9432 4.9996z" fill="#fff"/><path d="m86.1123 27.5793v6.0628" stroke="#bbdbfc" stroke-linecap="round" stroke-linejoin="round" stroke-miterlimit="10" stroke-width="3"/><path d="m71.228 31.6827 3.1235 5.2456" stroke="#bbdbfc" stroke-linecap="round" stroke-linejoin="round" stroke-miterlimit="10" stroke-width="3"/><path d="m60.4546 42.4551 5.414 3.0226" stroke="#bbdbfc" stroke-linecap="round" stroke-linejoin="round" stroke-miterlimit="10" stroke-width="3"/><path d="m56.6792 57.0056h6.2469" stroke="#bbdbfc" stroke-linecap="round" stroke-linejoin="round" stroke-miterlimit="10" stroke-width="3"/><path d="m60.9072 71.4508 5.405-3.0314" stroke="#bbdbfc" stroke-linecap="round" stroke-linejoin="round" stroke-miterlimit="10" stroke-width="3"/><path d="m72.0068 81.9067 3.1144-5.2544" stroke="#bbdbfc" stroke-linecap="round" stroke-linejoin="round" stroke-miterlimit="10" stroke-width="3"/><path d="m86.9995 85.5708v-6.0627" stroke="#bbdbfc" stroke-linecap="round" stroke-linejoin="round" stroke-miterlimit="10" stroke-width="3"/><path d="m101.883 81.4674-3.1232-5.2456" stroke="#bbdbfc" stroke-linecap="round" stroke-linejoin="round" stroke-miterlimit="10" stroke-width="3"/><path d="m112.657 70.6951-5.414-3.0226" stroke="#bbdbfc" stroke-linecap="round" stroke-linejoin="round" stroke-miterlimit="10" stroke-width="3"/><path d="m116.432 56.1445h-6.246" stroke="#bbdbfc" stroke-linecap="round" stroke-linejoin="round" stroke-miterlimit="10" stroke-width="3"/><path d="m112.204 41.6993-5.405 3.0314" stroke="#bbdbfc" stroke-linecap="round" stroke-linejoin="round" stroke-miterlimit="10" stroke-width="3"/><path d="m101.105 31.2434-3.1148 5.2544" stroke="#bbdbfc" stroke-linecap="round" stroke-linejoin="round" stroke-miterlimit="10" stroke-width="3"/><path d="m42.646 123.133h133.086" stroke="#0c6cf2" stroke-linecap="round" stroke-linejoin="round" stroke-miterlimit="10" stroke-width="3"/><path d="m53.0576 128.405h112.2634" stroke="#0c6cf2" stroke-linecap="round" stroke-linejoin="round" stroke-miterlimit="10" stroke-width="3"/><path d="m172.111 73.9286h2.934c.878 0 1.593.6941 1.593 1.5464v20.6397c0 .8523-.715 1.5465-1.593 1.5465h-2.934" stroke="#0c6cf2" stroke-linecap="round" stroke-linejoin="round" stroke-miterlimit="10" stroke-width="3"/></svg>

<svg width="222" height="130" viewBox="0 0 222 130" fill="none" xmlns="http://www.w3.org/2000/svg">
<path d="M28.1606 117.862H47.173" stroke="#0C6CF2" stroke-width="3" stroke-miterlimit="10" stroke-linecap="round" stroke-linejoin="round"/>
<path d="M170.3 117.862H189.313" stroke="#0C6CF2" stroke-width="3" stroke-miterlimit="10" stroke-linecap="round" stroke-linejoin="round"/>
<path d="M46.2674 112.37H20.0122C15.2591 112.37 11.4114 108.636 11.4114 104.023C11.4114 99.4097 15.2591 95.6754 20.0122 95.6754H26.8024C29.0567 95.6754 30.8764 93.9093 30.8764 91.7214C30.8764 89.5336 29.0567 87.7675 26.8024 87.7675H10.5061C7.50935 87.7675 5.07396 85.4039 5.07396 82.4955C5.07396 79.5871 7.50935 77.2236 10.5061 77.2236H31.3291C34.3258 77.2236 36.7612 74.86 36.7612 71.9516C36.7612 69.0433 34.3258 66.6797 31.3291 66.6797H13.6748C7.42787 66.6797 2.35791 61.7592 2.35791 55.6964C2.35791 49.6337 7.42787 44.7132 13.6748 44.7132H26.8024C29.0567 44.7132 30.8764 42.9471 30.8764 40.7593C30.8764 38.5714 29.0567 36.8053 26.8024 36.8053H13.6748C10.4246 36.8053 7.79001 34.2484 7.79001 31.094C7.79001 27.9396 10.4246 25.3827 13.6748 25.3827H41.7406C43.9949 25.3827 45.8147 23.6166 45.8147 21.4288C45.8147 19.2409 43.9949 17.4748 41.7406 17.4748H22.7283C20.474 17.4748 18.6542 15.7087 18.6542 13.5209C18.6542 11.333 20.474 9.56689 22.7283 9.56689H191.576C195.08 9.56689 197.913 12.3171 197.913 15.7175C197.913 19.1179 195.08 21.8681 191.576 21.8681H172.111C170.364 21.8681 168.942 23.2476 168.942 24.9434C168.942 26.6392 170.364 28.0187 172.111 28.0187H209.23C210.978 28.0187 212.399 29.3982 212.399 31.094C212.399 32.7898 210.978 34.1693 209.23 34.1693H193.387C190.39 34.1693 187.955 36.5329 187.955 39.4413C187.955 42.3496 190.39 44.7132 193.387 44.7132H206.967C213.965 44.7132 219.642 50.2224 219.642 57.0144C219.642 63.8064 213.965 69.3156 206.967 69.3156H192.934C190.435 69.3156 188.407 71.2838 188.407 73.7089C188.407 76.134 190.435 78.1022 192.934 78.1022H205.609C211.358 78.1022 216.02 82.6273 216.02 88.2068C216.02 93.7863 211.358 98.3113 205.609 98.3113H187.502C185.755 98.3113 184.333 99.6908 184.333 101.387C184.333 103.082 185.755 104.462 187.502 104.462H199.271C201.526 104.462 203.346 106.228 203.346 108.416C203.346 110.604 201.526 112.37 199.271 112.37H167.584" stroke="#DFE3EB" stroke-width="3" stroke-miterlimit="10" stroke-linecap="round" stroke-linejoin="round"/>
<path d="M55.0946 122.914H161.926C167.43 122.914 171.885 118.591 171.885 113.249V97.4328H139.292C137.056 97.4328 134.974 96.8441 133.172 95.8248C121.846 103.223 108.211 107.537 93.5357 107.537H45.1357V113.249C45.1357 118.591 49.5901 122.914 55.0946 122.914Z" fill="#BBDBFC"/>
<path d="M162.958 53.4471C161.31 60.696 158.495 67.5144 154.701 73.709H171.885V43.8346C171.885 48.8342 167.974 52.9463 162.958 53.4471Z" fill="#BBDBFC"/>
<path d="M162.152 53.7195H55.3212C49.8166 53.7195 45.3623 49.3965 45.3623 44.0543C45.3623 38.712 49.8166 34.389 55.3212 34.389H162.152C167.657 34.389 172.111 38.712 172.111 44.0543C172.111 49.3965 167.657 53.7195 162.152 53.7195Z" fill="white" stroke="#0C6CF2" stroke-width="3" stroke-miterlimit="10" stroke-linecap="round" stroke-linejoin="round"/>
<path d="M139.745 90.8427C142.745 90.8427 145.177 88.4824 145.177 85.5708C145.177 82.6592 142.745 80.2988 139.745 80.2988C136.745 80.2988 134.313 82.6592 134.313 85.5708C134.313 88.4824 136.745 90.8427 139.745 90.8427Z" fill="#BBDBFC" stroke="#BBDBFC" stroke-width="3" stroke-miterlimit="10" stroke-linecap="round" stroke-linejoin="round"/>
<path d="M160.74 39.2217H56.4617C54.2617 39.2217 52.2428 40.6275 51.7991 42.6924C51.2016 45.5129 53.4469 48.0083 56.2806 48.0083H160.559C162.759 48.0083 164.778 46.6024 165.221 44.5376C165.828 41.7083 163.583 39.2217 160.74 39.2217Z" fill="#BBDBFC"/>
<path d="M139.836 97.6523C133.561 97.6523 128.057 93.1887 127.369 87.1436C126.563 79.9825 132.312 73.9286 139.519 73.9286H172.111V44.0542C172.111 49.3964 167.657 53.7194 162.152 53.7194H55.3212C49.8166 53.7194 45.3623 49.3964 45.3623 44.0542V113.468C45.3623 118.81 49.8166 123.133 55.3212 123.133H162.152C167.657 123.133 172.111 118.81 172.111 113.468V97.6523H139.836Z" stroke="#0C6CF2" stroke-width="3" stroke-miterlimit="10" stroke-linecap="round" stroke-linejoin="round"/>
<path d="M82.373 17.0443C86.563 17.0443 89.9598 13.7477 89.9598 9.68115C89.9598 5.61459 86.563 2.31799 82.373 2.31799C78.1829 2.31799 74.7861 5.61459 74.7861 9.68115C74.7861 13.7477 78.1829 17.0443 82.373 17.0443Z" fill="#0C6CF2" stroke="#BBDBFC" stroke-width="3" stroke-miterlimit="10" stroke-linecap="round" stroke-linejoin="round"/>
<path d="M82.373 11.4472C83.378 11.4472 84.1927 10.6565 84.1927 9.68114C84.1927 8.70575 83.378 7.91504 82.373 7.91504C81.3679 7.91504 80.5532 8.70575 80.5532 9.68114C80.5532 10.6565 81.3679 11.4472 82.373 11.4472Z" fill="white"/>
<path d="M82.373 8.34558C83.1244 8.34558 83.7401 8.94306 83.7401 9.67235C83.7401 10.4016 83.1244 10.9991 82.373 10.9991C81.6216 10.9991 81.0059 10.4016 81.0059 9.67235C81.0059 8.94306 81.6125 8.34558 82.373 8.34558ZM82.373 7.46692C81.1146 7.46692 80.1006 8.45102 80.1006 9.67235C80.1006 10.8937 81.1146 11.8778 82.373 11.8778C83.6314 11.8778 84.6454 10.8937 84.6454 9.67235C84.6454 8.45102 83.6224 7.46692 82.373 7.46692Z" fill="white"/>
<path d="M60.6442 24.9522C63.3343 24.9522 65.515 22.8357 65.515 20.225C65.515 17.6142 63.3343 15.4978 60.6442 15.4978C57.9542 15.4978 55.7734 17.6142 55.7734 20.225C55.7734 22.8357 57.9542 24.9522 60.6442 24.9522Z" fill="#0C6CF2" stroke="#BBDBFC" stroke-width="3" stroke-miterlimit="10" stroke-linecap="round" stroke-linejoin="round"/>
<path d="M156.612 24.9522C159.302 24.9522 161.482 22.8357 161.482 20.225C161.482 17.6142 159.302 15.4978 156.612 15.4978C153.921 15.4978 151.741 17.6142 151.741 20.225C151.741 22.8357 153.921 24.9522 156.612 24.9522Z" fill="#0C6CF2" stroke="#BBDBFC" stroke-width="3" stroke-miterlimit="10" stroke-linecap="round" stroke-linejoin="round"/>
<path d="M120.053 54.8178C134.054 54.8178 145.403 43.8029 145.403 30.2153C145.403 16.6278 134.054 5.61292 120.053 5.61292C106.053 5.61292 94.7036 16.6278 94.7036 30.2153C94.7036 43.8029 106.053 54.8178 120.053 54.8178Z" fill="white" stroke="#BBDBFC" stroke-width="3" stroke-miterlimit="10" stroke-linecap="round" stroke-linejoin="round"/>
<path d="M120.053 49.6776C131.129 49.6776 140.107 40.964 140.107 30.2153C140.107 19.4666 131.129 10.7531 120.053 10.7531C108.978 10.7531 100 19.4666 100 30.2153C100 40.964 108.978 49.6776 120.053 49.6776Z" fill="#0C6CF2" stroke="#BBDBFC" stroke-width="3" stroke-miterlimit="10" stroke-linecap="round" stroke-linejoin="round"/>
<path d="M119.673 5.61292V10.7531" stroke="#BBDBFC" stroke-width="3" stroke-miterlimit="10" stroke-linecap="round" stroke-linejoin="round"/>
<path d="M107.053 9.09241L109.696 13.5472" stroke="#BBDBFC" stroke-width="3" stroke-miterlimit="10" stroke-linecap="round" stroke-linejoin="round"/>
<path d="M97.9087 18.2305L102.499 20.8049" stroke="#BBDBFC" stroke-width="3" stroke-miterlimit="10" stroke-linecap="round" stroke-linejoin="round"/>
<path d="M94.7036 30.5844H99.9999" stroke="#BBDBFC" stroke-width="3" stroke-miterlimit="10" stroke-linecap="round" stroke-linejoin="round"/>
<path d="M98.2886 42.8329L102.879 40.2672" stroke="#BBDBFC" stroke-width="3" stroke-miterlimit="10" stroke-linecap="round" stroke-linejoin="round"/>
<path d="M107.705 51.7074L110.357 47.2526" stroke="#BBDBFC" stroke-width="3" stroke-miterlimit="10" stroke-linecap="round" stroke-linejoin="round"/>
<path d="M120.434 54.8178V49.6776" stroke="#BBDBFC" stroke-width="3" stroke-miterlimit="10" stroke-linecap="round" stroke-linejoin="round"/>
<path d="M133.054 51.3383L130.411 46.8835" stroke="#BBDBFC" stroke-width="3" stroke-miterlimit="10" stroke-linecap="round" stroke-linejoin="round"/>
<path d="M142.199 42.2002L137.608 39.6257" stroke="#BBDBFC" stroke-width="3" stroke-miterlimit="10" stroke-linecap="round" stroke-linejoin="round"/>
<path d="M145.403 29.8463H140.107" stroke="#BBDBFC" stroke-width="3" stroke-miterlimit="10" stroke-linecap="round" stroke-linejoin="round"/>
<path d="M141.818 17.5978L137.228 20.1635" stroke="#BBDBFC" stroke-width="3" stroke-miterlimit="10" stroke-linecap="round" stroke-linejoin="round"/>
<path d="M132.402 8.72339L129.75 13.1782" stroke="#BBDBFC" stroke-width="3" stroke-miterlimit="10" stroke-linecap="round" stroke-linejoin="round"/>
<path d="M118.75 16.8949L119.655 26.7447L128.573 29.7145L118.75 16.8949Z" fill="white"/>
<path d="M118.75 16.8949L111.425 31.2082L119.655 26.7447L118.75 16.8949Z" fill="white"/>
<path d="M120.587 36.8405L121.203 43.5271L128.717 31.261L120.587 36.8405Z" fill="white"/>
<path d="M121.203 43.5358L120.587 36.8404L111.57 32.7546L121.203 43.5358Z" fill="white"/>
<path d="M120.442 35.294L128.572 29.7145L119.655 26.7446L120.442 35.294Z" fill="white"/>
<path d="M111.425 31.2082L120.443 35.294L119.655 26.7446L111.425 31.2082Z" fill="white"/>
<path d="M86.5557 85.5708C103.056 85.5708 116.432 72.589 116.432 56.5751C116.432 40.5612 103.056 27.5793 86.5557 27.5793C70.0554 27.5793 56.6792 40.5612 56.6792 56.5751C56.6792 72.589 70.0554 85.5708 86.5557 85.5708Z" fill="white" stroke="#BBDBFC" stroke-width="3" stroke-miterlimit="10" stroke-linecap="round" stroke-linejoin="round"/>
<path d="M86.5559 79.508C99.6062 79.508 110.186 69.2406 110.186 56.5751C110.186 43.9095 99.6062 33.6421 86.5559 33.6421C73.5056 33.6421 62.9263 43.9095 62.9263 56.5751C62.9263 69.2406 73.5056 79.508 86.5559 79.508Z" fill="#0C6CF2" stroke="#BBDBFC" stroke-width="3" stroke-miterlimit="10" stroke-linecap="round" stroke-linejoin="round"/>
<path d="M98.3887 54.5717C99.4027 51.4789 97.1937 49.3877 93.9797 47.7182L95.7904 43.5885L93.2011 42.5165L91.4356 46.532C90.7566 46.2508 90.0595 45.9785 89.3533 45.7061L91.1278 41.6642L88.5385 40.5923L86.7278 44.7132C86.1665 44.4935 85.6052 44.2739 85.071 44.0542H85.0801L81.513 42.5781L80.336 45.258C80.336 45.258 82.2644 46.0136 82.2192 46.0312C83.2694 46.4617 83.3509 47.1998 83.2241 47.7446L78.2628 59.0441C78.0727 59.3428 77.6562 59.7734 76.9229 59.4747C76.941 59.5186 75.0397 58.7014 75.0397 58.7014L73.2109 61.4868L76.5788 62.8751C77.2035 63.1387 77.8192 63.4022 78.4167 63.6571L76.5879 67.8307L79.1772 68.9026L80.9879 64.773C81.6941 65.0805 82.3731 65.3704 83.043 65.6428L81.2414 69.7549L83.8307 70.8269L85.6595 66.6621C90.1138 68.2173 93.6266 68.4106 95.7451 64.606C97.4562 61.5395 96.5328 59.4747 94.3147 57.8755C96.1435 57.7613 97.6463 56.8387 98.3887 54.5717ZM90.8472 61.9964C89.4801 65.1156 84.1385 62.4884 82.3821 61.7592L84.8085 56.2324C86.5649 56.9617 92.2776 58.7454 90.8472 61.9964ZM93.0653 53.7019C91.8159 56.5399 87.3797 54.3081 85.9221 53.7107L88.1221 48.7023C89.5797 49.291 94.369 50.7408 93.0653 53.7019Z" fill="white"/>
<path d="M86.1123 27.5793V33.6421" stroke="#BBDBFC" stroke-width="3" stroke-miterlimit="10" stroke-linecap="round" stroke-linejoin="round"/>
<path d="M71.228 31.6827L74.3515 36.9283" stroke="#BBDBFC" stroke-width="3" stroke-miterlimit="10" stroke-linecap="round" stroke-linejoin="round"/>
<path d="M60.4546 42.4551L65.8686 45.4777" stroke="#BBDBFC" stroke-width="3" stroke-miterlimit="10" stroke-linecap="round" stroke-linejoin="round"/>
<path d="M56.6792 57.0056H62.9261" stroke="#BBDBFC" stroke-width="3" stroke-miterlimit="10" stroke-linecap="round" stroke-linejoin="round"/>
<path d="M60.9072 71.4508L66.3122 68.4194" stroke="#BBDBFC" stroke-width="3" stroke-miterlimit="10" stroke-linecap="round" stroke-linejoin="round"/>
<path d="M72.0068 81.9067L75.1212 76.6523" stroke="#BBDBFC" stroke-width="3" stroke-miterlimit="10" stroke-linecap="round" stroke-linejoin="round"/>
<path d="M86.9995 85.5708V79.5081" stroke="#BBDBFC" stroke-width="3" stroke-miterlimit="10" stroke-linecap="round" stroke-linejoin="round"/>
<path d="M101.883 81.4674L98.7598 76.2218" stroke="#BBDBFC" stroke-width="3" stroke-miterlimit="10" stroke-linecap="round" stroke-linejoin="round"/>
<path d="M112.657 70.6951L107.243 67.6725" stroke="#BBDBFC" stroke-width="3" stroke-miterlimit="10" stroke-linecap="round" stroke-linejoin="round"/>
<path d="M116.432 56.1445H110.186" stroke="#BBDBFC" stroke-width="3" stroke-miterlimit="10" stroke-linecap="round" stroke-linejoin="round"/>
<path d="M112.204 41.6993L106.799 44.7307" stroke="#BBDBFC" stroke-width="3" stroke-miterlimit="10" stroke-linecap="round" stroke-linejoin="round"/>
<path d="M101.105 31.2434L97.9902 36.4978" stroke="#BBDBFC" stroke-width="3" stroke-miterlimit="10" stroke-linecap="round" stroke-linejoin="round"/>
<path d="M42.646 123.133H175.732" stroke="#0C6CF2" stroke-width="3" stroke-miterlimit="10" stroke-linecap="round" stroke-linejoin="round"/>
<path d="M53.0576 128.405H165.321" stroke="#0C6CF2" stroke-width="3" stroke-miterlimit="10" stroke-linecap="round" stroke-linejoin="round"/>
<path d="M172.111 73.9286H175.045C175.923 73.9286 176.638 74.6227 176.638 75.475V96.1147C176.638 96.967 175.923 97.6612 175.045 97.6612H172.111" stroke="#0C6CF2" stroke-width="3" stroke-miterlimit="10" stroke-linecap="round" stroke-linejoin="round"/>
</svg>
